X:619
T:Day Dream
C:Klaus Pfister
L:1/8
Q:1/4=120
M:6/8
K:Dmaj
%%score (M1) (M2) 
V:M1  clef=treble  
V:M2  clef=treble   
%            End of header, start of tune body:
P:A
[V:M1]|: f3 d3 | B3 d3 | A2 d e2 d | z2 d e2 d | f3 d3 | B3 d3 | z6 |1 z2 f e2 d :|2 z6 ::
[V:M2]|: A3 F3 | D3 F3 | E2 F G2 F | z2 F G2 F | A3 F3 | D3 F3 | z6 |1 z2 A G2 F :|2 z6 ::
[V:M1]|: f3 d3 | B3 d3 | A2 d e2 d | z2 d e2 d | f3 d3 | B3 d3 |1 z2 b a2 f | a2 f e2 d :|2 z6 || z6 ::
[V:M2]|: A3 F3 | D3 F3 | E2 F G2 F | z2 F G2 F | A3 F3 | D3 F3 |1 z2 G F2 D | F2 A G2 F :|2 z6 || z6 :|
[V:M1]|: D3 A3 | z3 F3 | G3- G2 F | z6 | D3 A3 | z3 F3 | z6 | A2 F E2 F |
[V:M2]|: D3 F3 | z3 D3 | E3- E2 D | z6 | D3 F3 | z3 D3 | z6 | A2 F E2 F |
[V:M1] D3 A3 | z3 F3 | z3 G2 F | z2 A G2 F | z3 A3 | z3 F3 | z6 | z6 ||
[V:M2] D3 F3 | z3 D3 | z3 E2 D | z2 F E2 D | z3 F3 | z3 D3 | z6 | z6 
|:!turn!f3 !turn!d3 | Bde dBA | Bdd edf | z df edB | !turn!f3 !turn!d3 | Bde dBA | baf afe |"^D""^F#" def edB |
!turn!f3 !turn![df]3 | [Bg][df]e dBA | Bdd edf | z df edB |$ !turn!f3 !turn![df]3 | [Bg][df]e dBA | baf afd | edB A2 [Ge] :|
"D" [Ad]6- | [Ad]6 |"A" [Ac]3- [Ac]2 [DA]- |"D" [DA]3 [df]3 |$"D" [Ad]6- | [Ad]6 |"A" [Ac]6 | [EA]6 ||
"D" D>AD ADA |"Bm" D>BD BDB |"A7" C>AC ACA |"D" D>AD ADA |$"D" D>AD ADA |"Bm" D>BD BDB | "A7" C>AC ACA |"A7" [CEA]6 ||
"D" F>AF AFA |"Bm" F>BF BFB |"A7" E>AE AEA |"D" F>AF AFA | "D" F>AF AFA |"Bm" F>BF BFB |"A7" E>AE AEA |"A7" [EAc]6 ||

